X:1
T:Title
%%score { ( 1 3 ) | ( 2 4 ) }
L:1/8
M:3/4
K:C
V:1 treble nm="Grand Piano"
V:3 treble 
V:2 bass 
V:4 bass 
V:1
 z2 z2[Q:1/4=80] [G,EG]2 | [EG]2 E2 [CEG]2 | [CFA]4 [CFA]2 | [Ac]2 B2 A2 | [EG]4 [EG]2 | %5
 [EG]4 [EG]2 | c2 G2 E2 |[M:2/4] D4 |[M:1/4] [B,D]2 |[M:3/4] [CE]4 [EG]2 | [Ec]4 [EG]2 | A2 c2 A2 | %12
 [EG]4 [Gc]2 | d4 d2 | d2 e2 [B,Fd]2 |[M:2/4] [CEc]4 |] %16
V:2
 z2 z2 C,2 | z2 C2 C,2 | F,4 F,2 | z2[K:treble] G2 [F,CF]2 | [C,C]4 [C,C]2 | [C,C]4 [C,C]2 | %6
 [C,G,]4 [E,G,C]2 |[M:2/4] [G,B,]4 |[M:1/4] [G,,G,]2 |[M:3/4] [C,G,]4 [C,G,]2 | [C,G,]4 [C,C]2 | %11
 F2 A2[K:bass] [F,CF]2 | [C,C]4 [E,C]2 | [G,B,G]4 [G,B,G]2 | [G,,G]4 z2 |[M:2/4] C,4 |] %16
V:3
 x6 | G,4 z2 | x6 | C4 z2 | x6 | x6 | E4 z2 |[M:2/4] x4 |[M:1/4] x2 |[M:3/4] x6 | x6 | x6 | x6 | %13
 x6 | x6 |[M:2/4] x4 |] %16
V:4
 x6 | C,4 z2 | x6 | F,4[K:treble] z2 | x6 | x6 | x6 |[M:2/4] x4 |[M:1/4] x2 |[M:3/4] x6 | x6 | %11
 [F,C]4[K:bass] z2 | x6 | x6 | B,2 C2 G,,2 |[M:2/4] x4 |] %16

